X: 1
T: The Ballydesmond
R: polka
M: 2/4
L: 1/8
K: Ador
|:A>B AG|EF GE|A>B AG|Ad (4dedc|
A>B AG|EF G2|AB cE|ED D2:|
Ad d2|ed c2|ed cd|ea (4abag|
ed c2|ed c2|A3B cd|ef g>f|
ed cd|eA cd|e>d cd|ea (4abag|
(3efg d>B|ce d>B|AB cE|ED D2||


Tune 298	Setting 13051

